X:1
T:I am Going There
T:I am Going There
T:(or the Death of Little Eva) Dedication To the readers of "Uncle Tom's Cabin"
T:Anonymous
T:John S. Adams 
T:And weaker she grew as the months flew past, And calling her father she sweetly said: "O father, my strenght it is falling fast, Do me let speak ere it all hath fked!"
T:Then she spake to her friends: "forever love All that is holy, and good, and fair"; And to Uncle Tom: "we shall meet above - Above - with the holy angels there."
T:"Sweet Eva, my darling," the father said, "Do you know me dear Eva, say, oh say!" Then the child sprang up from its dying bed, But fell again, for its strength gave way.
T:In a breathless silence her friends came round; While her large clear eyes so fix'd and fair, Look'd up to heaven - and a whispering sound Said gently and sweetly - "I'm going there."
T:A glorious smile o'er her features played, Seldom seen in a changing world like this, Then the gentlest of earth - sweet Eva - strayed Forth to a world of endless bliss.
T:Good bye to thee Eva, the tomb hath not A treasure more dear in its close embrace. Good bye, but thou never shalt be forgot, Thy mem'ry in many a heart hath place.
T:by IMSLP - Public Domain
T:by IMSLP - Public Domain
T:by IMSLP - Public Domain
C:Anonymous
Z:John S. Adams
Z:by IMSLP - Public Domain
%%score 1 { ( 2 4 ) | ( 3 5 ) }
L:1/8
Q:1/4=90
M:3/4
K:F
V:1 treble nm="Voice"
V:2 treble nm="Piano"
V:4 treble 
V:3 bass 
V:5 bass 
V:1
"^Andante" z2 | z6 | z6 | z6 | z6 | z6 | z6 | z6 | z4 |] F G | A4 A2 | c4 B A | G4 G2 | B4 (AG) | %14
w: |||||||||"I am|go\- ing|there, I am|go\- ing|There" She _|
 F4 F F | G4 (FG) | (A2 B2) A2 | G4 c2 | (d3 c) d2 | f4 e d | (c3 d) c2 | A4 (AG) | F4 F F | %23
w: said in a|voice so _|gen- * tly|sweet, That|Un- * cle|Tom smooth'd her|gold _ en|hair, And _|mused like a|
 G4 (AG) | F4 F2 | F4 z2 | z6 | z6 | z6 | z6 |] F G | A4 A A | c4 (BA) | G4 G2 | B4 (AG) | F4 F2 | %36
w: child at _|E\- va's|feet.|||||Then he|thought that her|hands had _|thin\- ner|grown, Her _|skin more|
 G4 (FG) | (A2 B2) A2 | G4 c2 | (d3 c) d2 | f4 e d | (c3 d) c2 | A4 A G | F2 F2 F2 | G4 A G | %45
w: clear, her _|breath _ more|short, That|he, _ poor|Tom, would be|left _ a\-|lone With the|les\- sons fair|E\- va to|
 F4 F2 | F4 z2 | z6 | z6 | z6 | z4 |] %51
w: him had|taught.|||||
V:2
 [Ff][Gg] | [Aa]4 [Aa]2 | [cc']4 [Bb][Aa] | [Gg]4 [Gg]2 | [Bb]4 [Aa][Gg] | [Ff]4 [Ff]2 | %6
 ([Gg]3 [Bd]) [Ac][GB] | [CA]4 [B,G]2 | [A,F]4 |] z2 | [FA]C[FA]C[FA]C | [Ac]C[FA]C[GB][FA] | %12
 [EG]C[EG]C[EG]C | [GB]C[GB]C[CA][B,G] | F4 F2 | G4 [A,F][CG] | [FA]C[GB]C[FA]C | [EG]4 z2 | %18
 z2 [DFB]2 [DFB]2 | z2 [DFB]2 [DFB]2 | z2 [CFA]2 [CFA]2 | z2 [CFA]2 [CFA]2 | z2 [A,CF]2 [A,CF]2 | %23
 z2 [G,CE]2 [G,CE]2 | z2 [A,CF]2 [B,DF]2 | [A,CF]4 [Ff][Gg] | [Aa][Bb][=B=b][cc'][dd']>[cc'] | %27
 [ff']4 [=B=b]2 | [cc']2 [Aa]2 [Gg]2 | [Ff]4 z2 |] z2 | [FA]C[FA]C[FA]C | [Ac]C[FA]C [GB][FA] | %33
 [EG]C[EG]C[EG]C | [GB]C[GB]C [CB][B,G] | F4 F2 | G4 [A,F][CG] | [FA]C[GB]C[FA]C | [EG]4 z2 | %39
 z2 [DFB]2 [DFB]2 | z2 [DFB]2 [DFB]2 | z2 [CFA]2 [CFA]2 | z2 [CFA]2 [CFA]2 | z2 [A,CF]2 [A,CF]2 | %44
 z2 [G,CE]2 [G,CE]2 | z2 [A,CF]2 [B,DF]2 | [A,CF]4 [Ff][Gg] | [Aa][Bb][=B=b][cc'][dd']>[cc'] | %48
 [ff']4 [=B=b]2 | [cc']2 [Aa]2 [Gg]2 | [Ff]4 |] %51
V:3
 z2 | F,2 [A,C]2 [A,C]2 | F,2 [A,C]2 [A,C]2 | E,2 [G,C]2 [G,C]2 | C,2 [E,G,C]2 [E,G,C]2 | %5
 D,2 [F,A,]2 [F,A,]2 | B,,2 [D,G,]2 [D,G,]2 | C,2 [F,A,]2 E,2 | [F,,F,]4 |] z2 | F,6 | F,6 | C,6 | %13
 C,6 | F,4 F,2 | C,4 z2 | z6 | C,4 z2 | B,,4 z2 | B,,4 z2 | F,4 z2 | F,4 z2 | F,4 z2 | C,4 z2 | %24
 F,4 F,2 | F,4 z2 | z2 [A,C]2 [A,C]2 | z2 [F,_A,]2 [F,A,]2 | z2 [F,=A,]2 [E,B,]2 | [F,A,]4 z2 |] %30
 z2 | F,6 | F,6 | C,6 | C,6 | F,4 F,2 | C,4 C,2 | F,2 E,2 F,2 | C,4 z2 | B,,4 z2 | B,,4 z2 | %41
 F,4 z2 | F,4 z2 | F,4 z2 | C,4 z2 | F,4 F,2 | F,4 z2 | z2 [A,C]2 [A,C]2 | z2 [F,_A,]2 [F,A,]2 | %49
 z2 [F,=A,]2 [E,B,]2 | [F,A,]4 |] %51
V:4
 x2 | x6 | x6 | x6 | x6 | x6 | x6 | x6 | x4 |] x2 | x6 | x6 | x6 | x6 | A,CA,CA,C | G,CEC x2 | x6 | %17
 x6 | x6 | x6 | x6 | x6 | x6 | x6 | x6 | x6 | x6 | x6 | x6 | x6 |] x2 | x6 | x6 | x6 | x6 | %35
 A,CA,CA,C | G,CEC x2 | x6 | x6 | x6 | x6 | x6 | x6 | x6 | x6 | x6 | x6 | x6 | x6 | x6 | x4 |] %51
V:5
 x2 | x6 | x6 | x6 | x6 | x6 | x6 | x6 | x4 |] x2 | x6 | x6 | x6 | x6 | x6 | x6 | x6 | x6 | x6 | %19
 x6 | x6 | x6 | x6 | x6 | x6 | x6 | F,6 | _D,4 x2 | C,4 x2 | x6 |] x2 | x6 | x6 | x6 | x6 | x6 | %36
 x6 | x6 | x6 | x6 | x6 | x6 | x6 | x6 | x6 | x6 | x6 | F,6 | _D,4 x2 | C,4 x2 | x4 |] %51

